X:1
T:Minute Waltz
T:Minute Waltz
T:Op 64 No 1
T:Frederic Chopin
C:Frederic Chopin
%%score { ( 1 3 ) | 2 }
L:1/8
Q:1/4=220
M:3/4
K:Db
V:1 treble nm="Piano" snm="Pno."
V:3 treble 
V:2 bass 
V:1
"^Molto Vivace" (A2 =GAcB | =GABAcB | =GAcBGA | cB=GAcB |!<(! =GAcBGA!<)! | cB=GAcB | =GAcBGA | %7
!<(! Bcdefg!<)! |!>(! b3 agf!>)! | fePe=d e2) |!>(! (b3 agf!>)! | fPe=defB |!<(! =GAcBGA!<)! | %13
 cB=GAcB | =GAcBGA |!<(! Bcdefg!<)! |!>(! b3 agf!>)! | fePe=d e2 | b3 agf | efPe=de=e) |: %20
 (3(fgf =efag | fgf =efb | (3aba =gac'b | aba =gad' |!>(! c'bagfe!>)! | dcBAGF | ED!<(!CEBA!<)! | %27
!<(! =GABcde!<)! | (3fgf =efag | fgf =efb | (3aba=g ac'b | aba =gaf' |!>(! e'd'c'bag!>)! | fedcBA | %34
 =AcBFGC) |1 D2 z2 f2 :|2 D2 z2 (A2- ||!<(! A4 E2!<)! | A4 =E2 | A4 F2 |!mf! f4) (f2- | f4 B2 | %42
 f4 c2 | e4 d2 | (4:3:4c2 e2 d2 B2 | A4 E2 |!<(! A4 =E2!<)! | A4 F2 | f6 | Tc2 =B2 c2 | a2 B2 =g2 | %51
!>(! =A2 g2 _A2!>)! | f2 F2 B2 | A4 E2 |{/a} A4 =E2 |{/a} A4 F2 |{/a} f4) (f2 |{/a} f4 B2 | %58
{/a} f4 c2 |{/a} e2 d2 c2 |{/a} e2 d3) B |{/a} A4 E2 |{/a} A4 =E2 |!<(!{/a} A4 F2!<)! | f6 | %65
 f4 B2 | e4 __B2 |!<(! e2 A2 =d2!<)! |!<(! f2 e2 a2!<)! | !trill(!TA6- |!<(! A6-!<)! | A6- | A6 | %73
 =GAcBGA | cB=GAcB | =GAcBGA | cB=GAcB |!mf! =GAcBGA | cB=GAcB | =GAcBGA | Bcdefg | %81
!>(! b3 agf!>)! | fePe=d e2 |!>(! (b3 agf!>)! | fPe=defB |!p! =GAcBGA | cB=GAcB |!<(! =GAcBGA!<)! | %88
 Bcdefg |!>(! b3 agf!>)! | fePe=d e2 |!<(! b3 agf!<)! |!<(! efPe=de=e)!<)! | (3(fgf!<(! =efag!<)! | %94
 fgf =efb | (3aba =gac'b | aba =gad' |!>(! c'bagfe!>)! | dcBAGF | ED!<(!CEBA!<)! | =GABcde | %101
 (3fgf =efag | fgf =efb | (3aba =gac'b |!>(! aba =gaf'!>)! | e'd'c'bag |!>(! fedcBA!>)! | %107
 =AcBFGC) | D2 z2 f2 | (3fgf!<(! =efag!<)! | fgf =efb | (3aba =gac'b | aba =gad' | %113
!>(! c'bagfe!>)! | dcBAGF | ED!<(!CEBA!<)! | =GABcde | (3fgf =efag | fgf =efb | (3aba =gac'b | %120
!>(! aba =ga!8va(!!8va(!f''!>)! | (8:6:8e''d''c''b'a'g'f'e'!8va)!!8va)! |(8:6:8d'c'bagfed | %123
[K:Db](8:6:8cB=AcBFGC |!f! D4 !fermata!z2 |] %125
V:2
 z6 | z6 | z6 | z6 |!ped! .D,2 .[A,DF]2 .[A,DF]2!ped-up! |!ped! .F,2 .[A,DF]2 .[A,DF]2!ped-up! | %6
!ped! .D,2 .[A,DF]2 .[A,DF]2!ped-up! |!ped! .F,2 .[A,DF]2 .[A,DF]2!ped-up! | %8
!ped! .A,,2 .[A,CG]2 .[A,CG]2!ped-up! |!ped! .E,2 .[A,CG]2 .[A,CG]2!ped-up! | %10
!ped! .A,,2 .[CG]2 .[CG]2!ped-up! |!ped! .A,2 .[CG]2 .[CG]2!ped-up! | %12
!ped! .D,2 .[A,DF]2 .[A,DF]2!ped-up! |!ped! .F,2 .[A,DF]2 .[A,DF]2!ped-up! | %14
!ped! .D,2 .[A,DF]2 .[A,DF]2!ped-up! |!ped! .F,2 .[A,DF]2 .[A,DF]2!ped-up! | %16
!ped! .A,,2 .[A,CG]2 .[A,CG]2!ped-up! |!ped! .E,2 .[A,CG]2 .[A,CG]2!ped-up! | %18
!ped! .A,,2 .[A,CG]2 .[A,CG]2!ped-up! |!ped! .A,2 .[CG]2 (A,,2!ped-up! |: %20
!ped! =A,,2) .[F,CE]2 .[F,CE]2!ped-up! |!ped! .B,,2 .[F,C]2 .[F,C]2!ped-up! | %22
!ped! .C,2 .[A,EG]2 .[A,EG]2!ped-up! |!ped! .D,2 .[A,F]2 z2!ped-up! | %24
!ped! .G,2 .[B,E]2 z2!ped-up! |!ped! .A,,2 .[F,A,D]2 z2!ped-up! | %26
!ped! .A,,2 .[G,A,]2 .[G,A,C]2!ped-up! |!ped! .D,2 .[A,DF]2 z2!ped-up! |!ped! =A,6!ped-up! | %29
!ped! B,6!ped-up! |!ped! C6!ped-up! |!ped! .D2[I:staff -1] .[FA]2[I:staff +1] z2!ped-up! | %32
!ped! .G,2[I:staff -1] .[DEB]2[I:staff +1] z2!ped-up! |!ped! .A,,2 .[F,A,D]2 z2!ped-up! | %34
!ped! .A,,2 .[G,A,]2 .[G,A,]2!ped-up! |1!ped! D,2 [A,F]2 z2!ped-up! :|2 D,2 [A,F]2 z2 || %37
!ped! .A,,2 .[G,A,C]2 .[G,A,C]2!ped-up! | .[G,A,C]2 .[G,A,C]2 .[G,A,C]2 | %39
!ped! .D,2 .[A,D]2 .[A,D]2!ped-up! |!ped! .A,,2 .[A,DF]2 .[A,DF]2!ped-up! | %41
!ped! .E,2 .[A,CG]2 .[A,CG]2!ped-up! |!ped! .A,,2 .[A,EG]2 .[A,EG]2!ped-up! | %43
!ped! .D,2 .[A,DF]2 .[A,DF]2!ped-up! |!ped! .F,2 .[A,DF]2 .[A,DF]2!ped-up! | %45
!ped! .C,2 .[G,A,]2 .[G,A,]2!ped-up! |!ped! .A,,2 .[G,A,]2 .[G,A,C]2!ped-up! | %47
!ped! .D,2 .[A,D]2 .[A,D]2!ped-up! |!ped! .=B,,2 .[A,DF]2 .[A,DF]2!ped-up! | %49
!ped! .C,2 .[A,CF]2 .[A,CF]2!ped-up! |!ped! .C,,2 .[=G,C=E]2 z2!ped-up! | %51
!ped! .F,,2 z2 .[F,C]2!ped-up! | z6 |!ped! .C,2 .[G,A,]2 .[G,A,]2!ped-up! | %54
!ped! .A,,2 .[G,A,C]2 .[G,A,C]2!ped-up! |!ped! .D,2 .[A,D]2 .[A,D]2!ped-up! | %56
!ped! .A,,2 .[A,DF]2 .[A,DF]2!ped-up! |!ped! .E,2 .[A,CG]2 .[A,CG]2!ped-up! | %58
!ped! .A,,2 .[A,EG]2 .[A,EG]2!ped-up! |!ped! .D,2 .[A,DF]2 .[A,DF]2!ped-up! | %60
!ped! .F,2 .[A,DF]2 .[A,DF]2!ped-up! |!ped! C,6!ped-up! |!ped! .A,,2 .[G,A,C]2 .[G,A,C]2!ped-up! | %63
!ped! ._C,2 .[F,A,E]2 .[F,A,E]2!ped-up! |!ped! .B,,2 .[F,A,=D]2 .[F,A,D]2!ped-up! | %65
!ped! .E,2 .[D=G]2 .[DG]2!ped-up! |!ped! z2 .[DG]2 .[DG]2!ped-up! |!ped! A,4 z2!ped-up! | z6 | z6 | %70
 z6 | z6 | z6 | z6 | z6 | z6 | z6 |!ped! .D,,2 .[A,DF]2 .[A,DF]2!ped-up! | %78
!ped! .F,2 .[A,DF]2 .[A,DF]2!ped-up! |!ped! .D,2 .[A,DF]2 .[A,DF]2!ped-up! | %80
!ped! .F,2 .[A,DF]2 .[A,DF]2!ped-up! |!ped! .A,,2 .[A,CG]2 .[A,CG]2!ped-up! | %82
!ped! .E,2 .[A,CG]2 .[A,CG]2!ped-up! |!ped! .A,,2 .[CG]2 .[CG]2!ped-up! | %84
!ped! .A,2 .[CG]2 .[CG]2!ped-up! |!ped! .D,2 .[A,DF]2 .[A,DF]2!ped-up! | %86
!ped! .F,2 .[A,DF]2 .[A,DF]2!ped-up! |!ped! .D,2 .[A,DF]2 .[A,DF]2!ped-up! | %88
!ped! .F,2 .[A,DF]2 .[A,DF]2!ped-up! |!ped! .A,,2 .[A,CG]2 .[A,CG]2!ped-up! | %90
!ped! .E,2 .[A,CG]2 .[A,CG]2!ped-up! |!ped! .A,,2 .[A,CG]2 .[A,CG]2!ped-up! | %92
!ped! .A,2 .[CG]2 (A,,2!ped-up! |!ped! =A,,2) .[F,CE]2 .[F,CE]2!ped-up! | %94
!ped! .B,,2 .[F,C]2 .[F,C]2!ped-up! |!ped! .C,2 .[A,EG]2 .[A,EG]2!ped-up! | %96
!ped! .D,2 .[A,F]2 z2!ped-up! |!ped! .G,2 .[B,E]2 z2!ped-up! |!ped! .A,,2 .[F,A,D]2 z2!ped-up! | %99
!ped! .A,,2 .[G,A,]2 .[G,A,C]2!ped-up! |!ped! .D,2 .[A,DF]2 z2!ped-up! |!ped! =A,6!ped-up! | %102
!ped! B,6!ped-up! |!ped! C6!ped-up! |!ped! .D2[I:staff -1] .[FA]2[I:staff +1] z2!ped-up! | %105
!ped! .G,2[I:staff -1] .[DEB]2[I:staff +1] z2!ped-up! |!ped! .A,,2 .[F,A,D]2 z2!ped-up! | %107
!ped! .A,,2 .[G,A,]2 .[G,A,]2!ped-up! | .D,2 .[A,F]2 z2 |!ped! =A,,2 .[F,CE]2 .[F,CE]2!ped-up! | %110
!ped! .B,,2 .[F,C]2 .[F,C]2!ped-up! |!ped! .C,2 .[A,EG]2 .[A,EG]2!ped-up! | %112
!ped! .D,2 .[A,F]2 z2!ped-up! |!ped! .G,2 .[B,E]2 z2!ped-up! |!ped! .A,,2 .[F,A,D]2 z2!ped-up! | %115
!ped! .A,,2 .[G,A,]2 .[G,A,C]2!ped-up! |!ped! .D,2 .[A,DF]2 z2!ped-up! |!ped! =A,6!ped-up! | %118
!ped! B,6!ped-up! |!ped! C6!ped-up! |!ped! .D2[I:staff -1] .[FA]2[I:staff +1] z2!ped-up! | %121
 .G,,2[K:treble] .[DEB]2 z2 | x6 |[K:Db] .A,,2 .[G,A,]2 .[G,A,]2 | (D,,2 [F,A,F]2) !fermata!z2 |] %125
V:3
 x6 | x6 | x6 | x6 | x6 | x6 | x6 | x6 | x6 | x6 | x6 | x6 | x6 | x6 | x6 | x6 | x6 | x6 | x6 | %19
 x6 |: x6 | x6 | x6 | x6 | x6 | x6 | x6 | x6 |[I:staff +1] z2[I:staff -1] .[EF]2 .[EF]2 | %29
[I:staff +1] z2[I:staff -1] .[DF]2 .[DF]2 |[I:staff +1] z2[I:staff -1] .[GA]2 .[GA]2 | x6 | x6 | %33
 x6 | x6 |1 x6 :|2 x6 || x6 | x6 | x6 | x6 | x6 | x6 | x6 | x6 | x6 | x6 | x6 | x6 | x6 | x6 | x6 | %52
 x6 | x6 | x6 | x6 | x6 | x6 | x6 | x6 | x6 |[I:staff +1] z2 .[G,A,]2 .[G,A,]2 | x6 | x6 | x6 | %65
 x6 | x6 | z2 [CG]2 z2 | x6 | x6 | x6 | x6 | x6 | x6 | x6 | x6 | x6 | x6 | x6 | x6 | x6 | x6 | x6 | %83
 x6 | x6 | x6 | x6 | x6 | x6 | x6 | x6 | x6 | x6 | x6 | x6 | x6 | x6 | x6 | x6 | x6 | x6 | %101
 z2[I:staff -1] .[EF]2 .[EF]2 |[I:staff +1] z2[I:staff -1] .[DF]2 .[DF]2 | %103
[I:staff +1] z2[I:staff -1] .[GA]2 .[GA]2 | x6 | x6 | x6 | x6 | x6 | x6 | x6 | x6 | x6 | x6 | x6 | %115
 x6 | x6 |[I:staff +1] z2[I:staff -1] .[EF]2 .[EF]2 |[I:staff +1] z2[I:staff -1] .[DF]2 .[DF]2 | %119
[I:staff +1] z2[I:staff -1] .[GA]2 .[GA]2 | x5!8va(!!8va(! x | x6!8va)!!8va)! | x6 |[K:Db] x6 | %124
 x6 |] %125

